src/lib/packages/icons/src/assets/line/tablet.svg

<svg xmlns="http://www.w3.org/2000/svg" width="24" height="24" fill="none"><path fill="currentColor" d="M14 6.75h-4a.75.75 0 0 1 0-1.5h4a.75.75 0 0 1 0 1.5ZM20.75 18V6c0-2.418-1.332-3.75-3.75-3.75H7C4.582 2.25 3.25 3.582 3.25 6v12c0 2.418 1.332 3.75 3.75 3.75h10c2.418 0 3.75-1.332 3.75-3.75ZM17 3.75c1.577 0 2.25.673 2.25 2.25v12c0 1.577-.673 2.25-2.25 2.25H7c-1.577 0-2.25-.673-2.25-2.25V6c0-1.577.673-2.25 2.25-2.25h10ZM12 17a1 1 0 1 0 0 2 1 1 0 0 0 0-2Z"/></svg>

<svg width="24" height="24" viewBox="0 0 24 24" fill="none" xmlns="http://www.w3.org/2000/svg">
<path d="M14 6.75H10C9.586 6.75 9.25 6.414 9.25 6C9.25 5.586 9.586 5.25 10 5.25H14C14.414 5.25 14.75 5.586 14.75 6C14.75 6.414 14.414 6.75 14 6.75ZM20.75 18V6C20.75 3.582 19.418 2.25 17 2.25H7C4.582 2.25 3.25 3.582 3.25 6V18C3.25 20.418 4.582 21.75 7 21.75H17C19.418 21.75 20.75 20.418 20.75 18ZM17 3.75C18.577 3.75 19.25 4.423 19.25 6V18C19.25 19.577 18.577 20.25 17 20.25H7C5.423 20.25 4.75 19.577 4.75 18V6C4.75 4.423 5.423 3.75 7 3.75H17ZM12 17C11.448 17 11 17.448 11 18C11 18.552 11.448 19 12 19C12.552 19 13 18.552 13 18C13 17.448 12.552 17 12 17Z" fill="currentColor"/>
</svg>
